icon-themes/sifr_svg/cmd/sc_outlinecollapseall.svg

<svg viewBox="0 0 16 16" xmlns="http://www.w3.org/2000/svg"><g fill="#555753"><path d="m2.2207031 0c-.618354.725151-1.1698591 1.233922-1.9394531 2.25-.19095.19768-.28125.44055-.28125.75v.5878906.4121094h1c.224022 0 .528449-.12983.71875-.3125l.28125-.3710938 1-1.3164062 1 1.3164062.28125.3710938c.190288.18267.4621264.3242396.71875.3125h1v-.4121094-.5878906c0-.30945-.0903-.55232-.28125-.75l-1.8828125-2.25zm5.7792969 0v2h7v-2zm0 10v2h7v-2z"/><path d="m8 4v2h7v-2zm0 10v2h7v-2z" opacity=".35"/></g></svg>

<svg xmlns="http://www.w3.org/2000/svg" viewBox="0 0 16 16">
  <path
     style="fill:#555753"
     d="M 2.2207031 0 C 1.6023491 0.725151 1.050844 1.233922 0.28125 2.25 C 0.0903 2.44768 -1.110223e-16 2.69055 0 3 L 0 3.5878906 L 0 4 L 1 4 C 1.224022 4 1.528449 3.87017 1.71875 3.6875 L 2 3.3164062 L 3 2 L 4 3.3164062 L 4.28125 3.6875 C 4.471538 3.87017 4.7433764 4.0117396 5 4 L 6 4 L 6 3.5878906 L 6 3 C 6 2.69055 5.9097 2.44768 5.71875 2.25 L 3.8359375 0 L 2.2207031 0 z M 8 0 L 8 2 L 15 2 L 15 0 L 8 0 z M 8 10 L 8 12 L 15 12 L 15 10 L 8 10 z "
     />
  <path
     style="opacity:0.35;fill:#555753"
     d="m 8,4 v 2 h 7 V 4 Z m 0,10 v 2 h 7 v -2 z"
     />
</svg>
